icons/toll-booth.svg

<?xml version="1.0" encoding="UTF-8"?>
<svg version="1.1" id="toll-booth" xmlns="http://www.w3.org/2000/svg" width="15" height="15" viewBox="0 0 15 15">
  <path d="M8 1.5C8 1.22386 7.77614 1 7.5 1H2.5C2.22386 1 2 1.22386 2 1.5V12.5C2 12.7761 1.77614 13 1.5 13C1.22386 13 1 13.2239 1 13.5C1 13.7761 1.22386 14 1.5 14H8.5C8.77614 14 9 13.7761 9 13.5C9 13.2239 8.77614 13 8.5 13H7.5C7.22386 13 7 12.7761 7 12.5V10.2383C7 10.0812 7.07377 9.93333 7.19922 9.83886L13.7022 5.09961C13.9227 4.93349 13.9669 4.62 13.8008 4.39941L13.5 4C13.3339 3.77941 13.0204 3.73526 12.7998 3.90137L7.80078 7.50807C7.47129 7.7562 7 7.52113 7 7.10866V2.5C7 2.22386 7.22386 2 7.5 2C7.77614 2 8 1.77614 8 1.5ZM3 3.5C3 3.22386 3.22386 3 3.5 3H5.5C5.77614 3 6 3.22386 6 3.5V7.5C6 7.77614 5.77614 8 5.5 8H3.5C3.22386 8 3 7.77614 3 7.5V3.5Z"/>
</svg>

<?xml version="1.0" encoding="UTF-8"?>
<svg version="1.1" id="toll-booth" xmlns="http://www.w3.org/2000/svg" width="15" height="15" viewBox="0 0 15 15">
  <path d="M8 1.5a.5.5 0 0 0-.5-.5h-5a.5.5 0 0 0-.5.5v11a.5.5 0 0 1-.5.5.5.5 0 0 0 0 1h7a.5.5 0 0 0 0-1h-1a.5.5 0 0 1-.5-.5v-2.262a.5.5 0 0 1 .2-.4L14.29 4.5a.5.5 0 0 0 .099-.7l-.301-.4a.5.5 0 0 0-.7-.098L7.8 7.508a.5.5 0 0 1-.801-.4V2.5a.5.5 0 0 1 .5-.5.5.5 0 0 0 .5-.5Zm-5 2a.5.5 0 0 1 .5-.5h2a.5.5 0 0 1 .5.5v4a.5.5 0 0 1-.5.5h-2a.5.5 0 0 1-.5-.5v-4Z"/>
</svg>
